X:1
T:On the Banks of Red Roses
M:4/4
L:1/4
K:C
 E- F| G2 A G| E2 D C| c c d e| G2 z c| e e d c| A/2 c3/2 C3/2 E/2|\
 G3/2 A/2 G E| D2 C E| G G A G| E- E D C| c c d e| G2 c d| e/2 e3/2 d c|\
 A- c C E| D4| C2||
